storage/app/icons/phosphoricons/duotone/picture-in-picture-duotone.svg

<svg xmlns="http://www.w3.org/2000/svg" fill="currentColor" viewBox="0 0 256 256"><path d="M224 64v64h-88v72H40a8 8 0 0 1-8-8V64a8 8 0 0 1 8-8h176a8 8 0 0 1 8 8" opacity=".2"/><path d="M216 48H40a16 16 0 0 0-16 16v128a16 16 0 0 0 16 16h176a16 16 0 0 0 16-16V64a16 16 0 0 0-16-16M40 64h176v56h-80a8 8 0 0 0-8 8v64H40Zm176 128h-72v-56h72z"/></svg>

<svg xmlns="http://www.w3.org/2000/svg" viewBox="0 0 256 256" fill="currentColor"><path d="M224,64v64H136v72H40a8,8,0,0,1-8-8V64a8,8,0,0,1,8-8H216A8,8,0,0,1,224,64Z" opacity="0.2"/><path d="M216,48H40A16,16,0,0,0,24,64V192a16,16,0,0,0,16,16H216a16,16,0,0,0,16-16V64A16,16,0,0,0,216,48ZM40,64H216v56H136a8,8,0,0,0-8,8v64H40ZM216,192H144V136h72v56Z"/></svg>
